X: 522
T: Abbess, The
R: barndance
M: 4/4
K: Gmajor
DGA|B4 B3 c|d4 G4|e3 e edcB|cBAG d2 GF|
E2 c2 A3 F|D3 d BAGF|E2 cB AB/A/ GF|G4- GDGA|
B4 B3 c|d4 GABd|e3 e edcB|cBAG d2 GF|
E2 c2 A3 F|D3 d BAGF|E2 cB AB/A/ GF|G4- GABc||
d2 dG g3 d|cBAG d3 c|BAGF EccB|BAAB D2 GF|
E2 c2 A3 F|D3 d BAGF|E2 cB AB/A/ GF|G4- GABc|
d2 dG g3 d|cBAe ddef|g2 fg e2 dB|[M:3/2] ABef d3 c BAGF|
[M:4/4]
E2 c2 A3 F|D3 d BAGF|E2 cB AB/A/ GF|G2 G2- G||

